!!!COM: Paul Hindemith
!!!OTL: [T640_Hin-w48p7s1-3]
**kern	**dynam	**kern	**dynam
*grp:A	*grp:A	*grp:B	*grp:B
*part2	*part1/2	*part1	*part1/2
*staff2	*	*staff1	*
*I"Violoncello	*	*I"Viola	*
*I'Vc.	*	*I'Vla.	*
*clefG2	*	*clefC3	*
*k[]	*	*k[]	*
*C:	*	*C:	*
*M3/8	*	*M3/8	*
=327	=327	=327	=327
!	!	!LO:TX:t=[[eighth]=154]	!
!	!	!LO:TX:a:i:t=[pizz.]	!
!	!LO:DY:ed=brack	!	!LO:DY:ed=brack
8gL]	p	8FL	p
(16cL	.	8gJ	.
16d)	.	.	.
(16e	<	8r	<
16gJJ)	.	.	.
=328	=328	=328	=328
*M2/8	*	*M2/8	*
(16aLL	.	4r	.
16g)	.	.	.
(16a	.	.	.
16ccJJ)	.	.	.
=329	=329	=329	=329
!	!	!LO:TX:a:i:t=arco	!
4cc#X	.	(16FLL	.
.	.	16GJ)	.
.	.	8A-XJ	.
=330	=330	=330	=330
*M3/8	*	*M3/8	*
(>8qdd/	.	.	.
4cc#X)	.	8A-XL	.
.	.	8A-	.
(>8qdd#X/	.	.	.
[8cc#)	.	8A-J	.
=331	=331	=331	=331
.	[	(8qB-X/	[
8cc#]	.	8A-XL	.
(>8qee/	.	.	.
4cc#X)	.	8G)	.
.	.	8FJ	.
=332	=332	=332	=332
*M2/4	*	*M2/4	*
(>8qff#X/	.	.	.
4cc#X^)	mf	8r	mf
!	!	!LO:TX:a:i:t=pizz.	!
.	.	8EL	.
4b^	.	8d	.
.	.	8AJ	.
!!linebreak:original
=333	=333	=333	=333
*M3/8	*	*M3/8	*
(8b-XL	.	8DL	.
8f)	.	8cJ	.
8a-XJ	.	8r	.
=334	=334	=334	=334
(8qa-X/	.	.	.
8gL	.	8C#XL	.
8f)	.	8BJ	.
8e-XJ	.	8r	.
=335	=335	=335	=335
8r	.	8F#XL	.
(16dLL	.	8e	.
16f)	.	.	.
(16b-X	.	8BJ	.
16ccJJ)	.	.	.
=336	=336	=336	=336
*M2/4	*	*M2/4	*
4cc#X^	.	8EL	.
.	.	8dJ	.
4b^	.	8r	.
.	.	8D#X	.
=337	=337	=337	=337
*M3/8	*	*M3/8	*
(8b-XL	.	8c#XL	.
8f)	.	8r	.
8a-XJ	>	8cnJ	>
=338	=338	=338	=338
(8qa-X/	.	.	.
8gL	.	8b-XL	.
8f)	.	8g	.
8e-XJ	.	8BnJ	.
!!linebreak:original
=339	=339	=339	=339
8r	.	8aL	.
(16dLL	.	8r	.
16f)	.	.	.
(16b-X	.	8B-XJ	.
16ccJJ)	.	.	.
=340	=340	=340	=340
*M2/4	*	*M2/4	*
4cc#X^	.	8a-X	.
.	.	8r	.
4b^	.	8E-XL	.
.	.	8d-XJ	.
=341	=341	=341	=341
*M3/8	*	*M3/8	*
(8b-XL	.	8A-XL	.
8f)	.	8r	.
8a-XJ	]	8E-XJ	]
=342	=342	=342	=342
(8qa-X/	.	.	.
8gL	.	8d-XL	.
8f)	.	8A-XJ	.
8e-XJ	<	8r	<
=343	=343	=343	=343
8r	.	8E-X	.
(16dLL	.	8r	.
16f)	.	.	.
(16b-X	.	8r	.
16ccJJ)	[	.	[
=344	=344	=344	=344
*M2/8	*	*M2/8	*
!	!	!LO:TX:a:i:t=arco	!
(16cc#XLL	f	(16c#XLL	f
16dd#XJ)	.	16d#XJ)	.
8eeJ	.	8eJ	.
=	=	=	=
*-	*-	*-	*-
!!!system-decoration: [(s1,s2)]
!!!RDF**kern: > = above
!!!RDF**kern: < = below
!!!EED: Daniel Wright
!!!EEV: 2021/08/27
